images/zhuyin/31.svg

<svg width="50" height="50" viewBox="0 0 50 50" fill="none" xmlns="http://www.w3.org/2000/svg">
<path d="M24.0625 15.5234C24.3281 15.5234 24.5859 15.6953 24.8359 16.0391C25.0703 16.3984 25.1875 16.7188 25.1875 17C25.1875 17.2031 25.0312 17.4297 24.7188 17.6797C24.2188 18.1641 23.3203 19.2578 22.0234 20.9609C21.1953 22.1328 20.7812 22.875 20.7812 23.1875C20.7812 23.3906 20.875 23.5469 21.0625 23.6562L24.25 24.9453C26.7188 21.9766 28.1953 19.9922 28.6797 18.9922C28.7422 18.8516 28.8281 18.7812 28.9375 18.7812C29.2031 18.7812 29.5625 19.0625 30.0156 19.625C30.3594 20.0938 30.5312 20.5 30.5312 20.8438C30.5312 21.3438 30.2891 21.6719 29.8047 21.8281C29.0078 22.1719 27.3438 23.75 24.8125 26.5625C22.4375 29.2656 21.25 30.8672 21.25 31.3672C21.25 31.6016 21.3438 31.7188 21.5312 31.7188L29.0781 29.9844C28.2969 28.5781 27.9062 27.8125 27.9062 27.6875C27.9688 27.6875 28.0625 27.7188 28.1875 27.7812C29.3125 28.4688 30.25 29.2188 31 30.0312C31.6875 30.9219 32.0312 31.5781 32.0312 32C32.0312 32.4062 31.9375 32.7656 31.75 33.0781C31.5938 33.3125 31.4375 33.4297 31.2812 33.4297C30.9062 33.4297 30.6172 33.1484 30.4141 32.5859C30.2734 32.2109 30.0078 31.6562 29.6172 30.9219L21.625 33.2188C21.0156 33.375 20.5703 33.5312 20.2891 33.6875C19.9297 33.875 19.6875 33.9688 19.5625 33.9688C19.4219 33.9688 19.0781 33.6953 18.5312 33.1484C18.0938 32.7109 17.875 32.3906 17.875 32.1875C17.875 31.9375 18.0156 31.6953 18.2969 31.4609C19.0469 30.9453 20.6641 29.2031 23.1484 26.2344L19.1875 24.5234C18.625 24.3047 18.3438 23.9609 18.3438 23.4922C18.3438 22.9453 18.5703 22.5 19.0234 22.1562C19.5547 21.7969 20.3516 20.8906 21.4141 19.4375C22.6172 17.8438 23.4141 16.5938 23.8047 15.6875C23.8672 15.5781 23.9531 15.5234 24.0625 15.5234Z" fill="#333333"/>
<path d="M24.8359 16.0391L25.2547 15.7659L25.2478 15.7553L25.2403 15.745L24.8359 16.0391ZM24.7188 17.6797L24.4064 17.2893L24.3879 17.3041L24.3709 17.3206L24.7188 17.6797ZM22.0234 20.9609L21.6256 20.658L21.6202 20.6651L21.6151 20.6724L22.0234 20.9609ZM21.0625 23.6562L20.8106 24.0881L20.8417 24.1063L20.875 24.1198L21.0625 23.6562ZM24.25 24.9453L24.0625 25.4088L24.401 25.5457L24.6344 25.265L24.25 24.9453ZM28.6797 18.9922L29.1297 19.2102L29.1333 19.2028L29.1366 19.1953L28.6797 18.9922ZM30.0156 19.625L30.4188 19.3293L30.4121 19.3202L30.405 19.3113L30.0156 19.625ZM29.8047 21.8281L29.6512 21.3523L29.6285 21.3596L29.6066 21.369L29.8047 21.8281ZM24.8125 26.5625L24.4408 26.228L24.4369 26.2325L24.8125 26.5625ZM21.5312 31.7188V32.2188H21.588L21.6432 32.206L21.5312 31.7188ZM29.0781 29.9844L29.1901 30.4717L29.8381 30.3228L29.5152 29.7416L29.0781 29.9844ZM27.9062 27.6875V27.1875H27.4062V27.6875H27.9062ZM28.1875 27.7812L28.4482 27.3546L28.4301 27.3435L28.4111 27.334L28.1875 27.7812ZM31 30.0312L31.3958 29.7257L31.3823 29.7083L31.3674 29.6921L31 30.0312ZM31.75 33.0781L32.166 33.3555L32.1726 33.3456L32.1787 33.3354L31.75 33.0781ZM30.4141 32.5859L30.8844 32.4161L30.8822 32.4104L30.4141 32.5859ZM29.6172 30.9219L30.0586 30.6871L29.8684 30.3294L29.4791 30.4413L29.6172 30.9219ZM21.625 33.2188L21.7492 33.7031L21.7562 33.7013L21.7631 33.6993L21.625 33.2188ZM20.2891 33.6875L20.5204 34.1309L20.5319 34.1246L20.2891 33.6875ZM18.2969 31.4609L18.0136 31.0489L17.9946 31.062L17.9768 31.0768L18.2969 31.4609ZM23.1484 26.2344L23.5319 26.5553L23.9621 26.0412L23.3467 25.7754L23.1484 26.2344ZM19.1875 24.5234L19.3858 24.0644L19.3773 24.0608L19.3687 24.0574L19.1875 24.5234ZM19.0234 22.1562L18.7433 21.7421L18.732 21.7497L18.7212 21.7579L19.0234 22.1562ZM21.4141 19.4375L21.015 19.1362L21.0104 19.1424L21.4141 19.4375ZM23.8047 15.6875L23.3706 15.4394L23.3566 15.4638L23.3455 15.4896L23.8047 15.6875ZM24.0625 16.0234C24.0909 16.0234 24.2184 16.04 24.4316 16.3331L25.2403 15.745C24.9535 15.3506 24.5654 15.0234 24.0625 15.0234V16.0234ZM24.4171 16.3122C24.6244 16.63 24.6875 16.8542 24.6875 17H25.6875C25.6875 16.5833 25.5162 16.1668 25.2547 15.7659L24.4171 16.3122ZM24.6875 17C24.6875 16.9699 24.6992 16.9796 24.6587 17.0384C24.6177 17.0978 24.5402 17.1822 24.4064 17.2893L25.0311 18.0701C25.3581 17.8085 25.6875 17.4511 25.6875 17H24.6875ZM24.3709 17.3206C23.8391 17.8357 22.9182 18.9605 21.6256 20.658L22.4212 21.2638C23.7224 19.5551 24.5984 18.4924 25.0666 18.0388L24.3709 17.3206ZM21.6151 20.6724C21.1967 21.2644 20.8747 21.7594 20.6552 22.1529C20.5455 22.3494 20.4564 22.5295 20.3935 22.6898C20.3344 22.8404 20.2812 23.0151 20.2812 23.1875H21.2812C21.2812 23.2036 21.2799 23.1684 21.3243 23.0553C21.3649 22.9519 21.431 22.8147 21.5284 22.6401C21.723 22.2914 22.022 21.8293 22.4318 21.2495L21.6151 20.6724ZM20.2812 23.1875C20.2812 23.5829 20.4823 23.8967 20.8106 24.0881L21.3144 23.2244C21.2966 23.2139 21.287 23.206 21.2828 23.2019C21.2788 23.1981 21.2789 23.1974 21.2803 23.1998C21.2809 23.2008 21.2815 23.202 21.282 23.2032C21.2825 23.2043 21.2827 23.205 21.2826 23.2048C21.2826 23.2048 21.2812 23.1996 21.2812 23.1875H20.2812ZM20.875 24.1198L24.0625 25.4088L24.4375 24.4818L21.25 23.1927L20.875 24.1198ZM24.6344 25.265C25.8718 23.7771 26.8644 22.5312 27.6101 21.529C28.3501 20.5345 28.8653 19.756 29.1297 19.2102L28.2297 18.7742C28.0097 19.2284 27.5444 19.9421 26.8078 20.932C26.077 21.9141 25.097 23.1448 23.8656 24.6256L24.6344 25.265ZM29.1366 19.1953C29.1477 19.1704 29.1439 19.1913 29.1076 19.221C29.0882 19.2369 29.0619 19.2531 29.0292 19.2649C28.9964 19.2767 28.9648 19.2812 28.9375 19.2812V18.2812C28.551 18.2812 28.3273 18.554 28.2228 18.7891L29.1366 19.1953ZM28.9375 19.2812C28.9031 19.2812 28.9494 19.2695 29.0981 19.3859C29.2356 19.4936 29.4115 19.6721 29.6262 19.9387L30.405 19.3113C30.1666 19.0154 29.9363 18.7721 29.7144 18.5984C29.5038 18.4336 29.2375 18.2812 28.9375 18.2812V19.2812ZM29.6124 19.9207C29.9325 20.3571 30.0312 20.6576 30.0312 20.8438H31.0312C31.0312 20.3424 30.7863 19.8304 30.4188 19.3293L29.6124 19.9207ZM30.0312 20.8438C30.0312 21.0115 29.9917 21.1077 29.9473 21.1679C29.9023 21.2289 29.8187 21.2982 29.6512 21.3523L29.9582 22.304C30.275 22.2018 30.5547 22.0289 30.7519 21.7618C30.9497 21.4938 31.0312 21.176 31.0312 20.8438H30.0312ZM29.6066 21.369C29.1158 21.5808 28.4415 22.1228 27.6149 22.9067C26.7692 23.7088 25.7104 24.8174 24.4409 26.228L25.1841 26.897C26.4458 25.4951 27.4847 24.4084 28.303 23.6323C29.1405 22.8381 29.6967 22.4192 30.0027 22.2872L29.6066 21.369ZM24.4369 26.2325C23.2463 27.5876 22.345 28.6759 21.739 29.4932C21.4366 29.901 21.2003 30.2513 21.0373 30.5397C20.9559 30.6838 20.8877 30.8214 20.8387 30.9493C20.7923 31.0706 20.75 31.2163 20.75 31.3672H21.75C21.75 31.393 21.7449 31.3793 21.7726 31.3068C21.7979 31.2409 21.841 31.1501 21.908 31.0316C22.0419 30.7946 22.2509 30.4818 22.5423 30.0888C23.1237 29.3046 24.0037 28.2405 25.1881 26.8925L24.4369 26.2325ZM20.75 31.3672C20.75 31.5378 20.7819 31.7583 20.9299 31.9432C21.0949 32.1494 21.3271 32.2188 21.5312 32.2188V31.2188C21.5356 31.2188 21.5624 31.2194 21.6005 31.2352C21.6417 31.2524 21.6809 31.2812 21.7107 31.3185C21.7649 31.3863 21.75 31.431 21.75 31.3672H20.75ZM21.6432 32.206L29.1901 30.4717L28.9661 29.4971L21.4193 31.2315L21.6432 32.206ZM29.5152 29.7416C29.1254 29.04 28.8359 28.5031 28.6446 28.1282C28.5486 27.94 28.4804 27.7987 28.4374 27.7005C28.4156 27.6509 28.4034 27.6194 28.3976 27.6024C28.3851 27.5659 28.4062 27.6112 28.4062 27.6875H27.4062C27.4062 27.7951 27.4396 27.8916 27.4515 27.9264C27.4701 27.9806 27.4945 28.0405 27.5216 28.1022C27.5762 28.2267 27.6546 28.3881 27.7538 28.5827C27.9532 28.9735 28.2496 29.5225 28.641 30.2272L29.5152 29.7416ZM27.9062 28.1875C27.8814 28.1875 27.8654 28.1845 27.8609 28.1836C27.856 28.1827 27.8571 28.1825 27.8653 28.1853C27.8827 28.1911 27.9146 28.2038 27.9639 28.2285L28.4111 27.334C28.2822 27.2696 28.0962 27.1875 27.9062 27.1875V28.1875ZM27.9268 28.2079C29.0197 28.8758 29.9193 29.5976 30.6326 30.3704L31.3674 29.6921C30.5807 28.8399 29.6053 28.0617 28.4482 27.3546L27.9268 28.2079ZM30.6042 30.3368C30.9383 30.7695 31.1772 31.1307 31.3305 31.4234C31.4893 31.7265 31.5312 31.9098 31.5312 32H32.5312C32.5312 31.6684 32.4013 31.3125 32.2164 30.9594C32.0259 30.5958 31.7492 30.1836 31.3958 29.7257L30.6042 30.3368ZM31.5312 32C31.5312 32.3263 31.4569 32.5948 31.3213 32.8209L32.1787 33.3354C32.4181 32.9365 32.5312 32.4862 32.5312 32H31.5312ZM31.334 32.8008C31.2746 32.8898 31.2331 32.9287 31.2156 32.9418C31.2021 32.952 31.2266 32.9297 31.2812 32.9297V33.9297C31.7029 33.9297 31.9896 33.6201 32.166 33.3555L31.334 32.8008ZM31.2812 32.9297C31.2316 32.9297 31.0649 32.9161 30.8843 32.4161L29.9438 32.7558C30.1695 33.3808 30.5809 33.9297 31.2812 33.9297V32.9297ZM30.8822 32.4104C30.7296 32.0033 30.451 31.4248 30.0586 30.6871L29.1758 31.1567C29.5646 31.8877 29.8173 32.4186 29.9459 32.7615L30.8822 32.4104ZM29.4791 30.4413L21.4869 32.7382L21.7631 33.6993L29.7553 31.4024L29.4791 30.4413ZM21.5008 32.7344C20.8815 32.8932 20.3853 33.062 20.0462 33.2504L20.5319 34.1246C20.7553 34.0005 21.1498 33.8568 21.7492 33.7031L21.5008 32.7344ZM20.0578 33.2442C19.8865 33.3335 19.7544 33.3946 19.6574 33.4322C19.6091 33.4508 19.5756 33.4613 19.5545 33.4667C19.5306 33.4728 19.5365 33.4688 19.5625 33.4688V34.4688C19.7233 34.4688 19.8882 34.4151 20.0184 34.3647C20.1636 34.3085 20.3322 34.229 20.5203 34.1308L20.0578 33.2442ZM19.5625 33.4688C19.663 33.4688 19.7103 33.5078 19.6647 33.4821C19.6363 33.466 19.5861 33.4326 19.5105 33.3724C19.3605 33.253 19.1533 33.0634 18.8848 32.7949L18.1777 33.502C18.4561 33.7804 18.6942 34.0009 18.888 34.155C18.9842 34.2315 19.0805 34.3006 19.1731 34.3529C19.2486 34.3955 19.3917 34.4688 19.5625 34.4688V33.4688ZM18.8848 32.7949C18.6767 32.5868 18.5367 32.4221 18.452 32.2981C18.3556 32.157 18.375 32.1318 18.375 32.1875H17.375C17.375 32.4463 17.5038 32.6828 17.6262 32.8621C17.7602 33.0583 17.9483 33.2726 18.1777 33.502L18.8848 32.7949ZM18.375 32.1875C18.375 32.1445 18.3953 32.0298 18.617 31.845L17.9768 31.0768C17.6359 31.3609 17.375 31.7305 17.375 32.1875H18.375ZM18.5801 31.873C19.0066 31.5798 19.6326 30.9761 20.4387 30.1077C21.2556 29.2277 22.2871 28.0427 23.5319 26.5553L22.765 25.9135C21.5254 27.3948 20.5061 28.5652 19.7058 29.4274C18.8947 30.3012 18.3372 30.8265 18.0136 31.0489L18.5801 31.873ZM23.3467 25.7754L19.3858 24.0644L18.9892 24.9824L22.9502 26.6934L23.3467 25.7754ZM19.3687 24.0574C19.1402 23.9685 19.0116 23.8704 18.9417 23.7849C18.8784 23.7076 18.8438 23.618 18.8438 23.4922H17.8438C17.8438 23.8351 17.9497 24.1518 18.1677 24.4182C18.379 24.6764 18.6723 24.8596 19.0063 24.9894L19.3687 24.0574ZM18.8438 23.4922C18.8438 23.1089 18.9913 22.8082 19.3256 22.5546L18.7212 21.7579C18.1493 22.1918 17.8438 22.7817 17.8438 23.4922H18.8438ZM19.3036 22.5704C19.6229 22.3544 19.9885 21.9995 20.395 21.5372C20.8069 21.0688 21.2814 20.466 21.8177 19.7326L21.0104 19.1424C20.4842 19.8621 20.0291 20.439 19.644 20.8769C19.2537 21.3208 18.9552 21.5987 18.7433 21.7421L19.3036 22.5704ZM21.8131 19.7388C23.0211 18.1386 23.8484 16.8493 24.2638 15.8854L23.3455 15.4896C22.9797 16.3382 22.2133 17.5489 21.015 19.1362L21.8131 19.7388ZM24.2388 15.9356C24.2392 15.935 24.2244 15.9609 24.1845 15.9863C24.1412 16.0138 24.0956 16.0234 24.0625 16.0234V15.0234C23.7433 15.0234 23.5059 15.2026 23.3706 15.4394L24.2388 15.9356Z" fill="#333333"/>
</svg>

<svg xmlns="http://www.w3.org/2000/svg" width="50" height="50" fill="none"><path fill="#333" d="M24.063 15.523c.265 0 .523.172.773.516.234.36.352.68.352.961 0 .203-.157.43-.47.68-.5.484-1.398 1.578-2.695 3.28-.828 1.173-1.242 1.915-1.242 2.227 0 .204.094.36.282.47l3.187 1.288c2.469-2.968 3.945-4.953 4.43-5.953.062-.14.148-.21.258-.21.265 0 .625.28 1.078.843.343.469.515.875.515 1.219 0 .5-.242.828-.726.984-.797.344-2.461 1.922-4.992 4.735-2.375 2.703-3.563 4.304-3.563 4.804 0 .235.094.352.281.352l7.547-1.735c-.781-1.406-1.172-2.172-1.172-2.297a.72.72 0 0 1 .282.094c1.125.688 2.062 1.438 2.812 2.25.688.89 1.031 1.547 1.031 1.969 0 .406-.093.766-.281 1.078-.156.234-.313.352-.469.352-.375 0-.664-.282-.867-.844-.14-.375-.406-.93-.797-1.664l-7.992 2.297c-.61.156-1.055.312-1.336.468-.36.188-.602.282-.727.282-.14 0-.484-.274-1.03-.82-.438-.438-.657-.758-.657-.962 0-.25.14-.492.422-.726.75-.516 2.367-2.258 4.851-5.227l-3.96-1.71c-.563-.22-.844-.563-.844-1.032 0-.547.226-.992.68-1.336.53-.36 1.328-1.265 2.39-2.718 1.203-1.594 2-2.844 2.39-3.75.063-.11.15-.165.259-.165Z"/><path fill="#333" d="m24.836 16.04.419-.274-.007-.01-.008-.011-.404.294Zm-.117 1.64-.313-.39-.018.014-.017.017.348.359Zm-2.696 3.28-.397-.302-.006.007-.005.007.408.289Zm-.96 2.696-.252.432.03.018.034.014.188-.464Zm3.187 1.29-.188.463.339.137.233-.281-.384-.32Zm4.43-5.954.45.218.003-.007.004-.008-.457-.203Zm1.336.633.403-.296-.007-.009-.007-.009-.39.314Zm-.211 2.203-.154-.476-.023.008-.021.009.198.46Zm-4.992 4.735-.372-.335-.004.005.375.33Zm-3.282 5.156v.5h.057l.055-.013-.112-.487Zm7.547-1.735.112.488.648-.15-.323-.58-.437.242Zm-1.172-2.297v-.5h-.5v.5h.5Zm.282.094.26-.426-.018-.012-.019-.009-.224.447ZM31 30.031l.396-.305-.014-.018-.015-.016-.367.34Zm.75 3.047.416.277.007-.01.006-.01-.429-.257Zm-1.336-.492.47-.17-.002-.006-.468.176Zm-.797-1.664.442-.235-.19-.358-.39.112.138.48Zm-7.992 2.297.124.484.007-.002.007-.002-.138-.48Zm-1.336.468.231.444.012-.006-.243-.438Zm-1.992-2.226-.283-.412-.02.013-.017.015.32.384Zm4.851-5.227.384.321.43-.514-.615-.266-.199.46Zm-3.96-1.71.198-.46-.009-.003-.008-.004-.181.466Zm-.165-2.368-.28-.414-.011.008-.01.008.301.398Zm2.391-2.718-.399-.302-.005.006.404.296Zm2.39-3.75-.433-.249-.014.025-.011.026.459.197Zm.259.335c.028 0 .155.017.369.31l.808-.588c-.287-.394-.675-.722-1.177-.722v1Zm.354.29c.207.317.27.541.27.687h1c0-.417-.17-.833-.432-1.234l-.838.546Zm.27.687c0-.03.012-.02-.028.038-.041.06-.119.144-.253.251l.625.781c.327-.262.657-.619.657-1.07h-1Zm-.316.32c-.532.516-1.453 1.64-2.745 3.338l.795.606c1.301-1.709 2.177-2.772 2.646-3.225l-.696-.718Zm-2.756 3.352a17.39 17.39 0 0 0-.96 1.48c-.11.197-.199.377-.262.538-.059.15-.112.325-.112.497h1c0 .017-.001-.019.043-.132.04-.103.107-.24.204-.415.195-.349.494-.81.904-1.39l-.817-.578Zm-1.334 2.515c0 .396.201.71.53.901l.503-.864a.173.173 0 0 1-.031-.022c-.004-.004-.004-.005-.003-.002a.027.027 0 0 1 .003.005s-.002-.005-.002-.017h-1Zm.594.933 3.188 1.289.375-.927-3.188-1.29-.375.928Zm3.76 1.145c1.237-1.488 2.23-2.734 2.975-3.736.74-.994 1.255-1.773 1.52-2.319l-.9-.436c-.22.454-.686 1.168-1.422 2.158-.731.982-1.711 2.213-2.942 3.694l.768.639Zm4.502-6.07c.01-.025.007-.004-.03.026a.267.267 0 0 1-.17.06v-1c-.386 0-.61.273-.714.508l.914.406Zm-.2.086c-.034 0 .012-.011.161.105.138.108.314.286.528.553l.779-.628a4.476 4.476 0 0 0-.69-.713c-.211-.164-.477-.317-.777-.317v1Zm.675.64c.32.436.42.737.42.923h1c0-.502-.246-1.014-.613-1.515l-.807.592Zm.42.923c0 .168-.04.264-.085.324-.045.06-.128.13-.296.184l.307.952c.317-.102.597-.275.794-.542.198-.268.28-.586.28-.918h-1Zm-.425.525c-.491.212-1.165.754-1.992 1.538-.846.802-1.905 1.91-3.174 3.321l.743.669c1.262-1.402 2.3-2.489 3.119-3.265.837-.794 1.394-1.213 1.7-1.345l-.396-.918Zm-5.17 4.864c-1.19 1.355-2.092 2.443-2.698 3.26-.302.408-.539.758-.702 1.047-.081.144-.15.281-.198.41a1.189 1.189 0 0 0-.089.417h1c0 .026-.005.012.023-.06.025-.066.068-.157.135-.275.134-.237.343-.55.634-.943.582-.784 1.462-1.848 2.646-3.197l-.751-.66Zm-3.687 5.134c0 .17.032.391.18.576a.752.752 0 0 0 .601.276v-1c.005 0 .031 0 .07.016.04.017.08.046.11.084.054.067.039.112.039.048h-1Zm.893.839 7.547-1.734-.224-.975-7.547 1.735.224.974Zm7.872-2.464c-.39-.702-.68-1.239-.87-1.614a8.662 8.662 0 0 1-.208-.427 1.358 1.358 0 0 1-.04-.099c-.012-.036.01.01.01.085h-1c0 .108.033.205.044.24.02.054.043.114.07.175.055.125.134.286.233.48.2.392.496.94.887 1.645l.874-.485Zm-1.609-1.555a.233.233 0 0 1-.045-.003l.004.001c.018.006.05.019.099.044l.447-.895c-.129-.064-.315-.146-.505-.146v1Zm.02.02c1.094.669 1.993 1.39 2.707 2.163l.734-.678c-.786-.852-1.762-1.63-2.919-2.337l-.521.853Zm2.678 2.13c.334.433.573.794.727 1.086.158.304.2.487.2.577h1c0-.332-.13-.688-.315-1.04a8.725 8.725 0 0 0-.82-1.234l-.792.61ZM31.531 32c0 .326-.074.595-.21.82l.858.515c.24-.398.352-.849.352-1.335h-1Zm-.197.8a.599.599 0 0 1-.118.142c-.014.01.01-.012.065-.012v1c.422 0 .709-.31.885-.575l-.832-.554Zm-.053.13c-.05 0-.216-.014-.397-.514l-.94.34c.226.625.637 1.174 1.337 1.174v-1Zm-.399-.52c-.152-.407-.431-.985-.823-1.723l-.883.47c.389.73.641 1.262.77 1.604l.936-.35Zm-1.403-1.969-7.992 2.297.276.961 7.992-2.297-.276-.96Zm-7.978 2.293c-.62.16-1.116.328-1.455.516l.486.875c.223-.124.618-.268 1.217-.422l-.248-.969Zm-1.443.51a4.19 4.19 0 0 1-.4.188.972.972 0 0 1-.104.035c-.023.006-.017.002.009.002v1c.16 0 .325-.054.455-.104.146-.056.314-.136.502-.234l-.462-.887Zm-.495.225c.1 0 .147.039.102.013a1.305 1.305 0 0 1-.154-.11 8.056 8.056 0 0 1-.626-.577l-.707.707c.278.278.516.499.71.653.096.076.192.146.285.198a.805.805 0 0 0 .39.116v-1Zm-.678-.674a3.732 3.732 0 0 1-.433-.497c-.096-.141-.077-.166-.077-.11h-1c0 .258.129.495.251.674.134.196.322.41.552.64l.707-.707Zm-.51-.608c0-.042.02-.157.242-.342l-.64-.768c-.341.284-.602.653-.602 1.11h1Zm.205-.314c.427-.293 1.053-.897 1.859-1.765.817-.88 1.848-2.065 3.093-3.553l-.767-.642c-1.24 1.482-2.259 2.652-3.06 3.514-.81.874-1.368 1.4-1.691 1.622l.566.824Zm4.767-6.098-3.961-1.71-.397.917 3.961 1.711.397-.918Zm-3.978-1.718c-.229-.088-.357-.187-.427-.272a.434.434 0 0 1-.098-.293h-1c0 .343.106.66.324.926.211.258.504.442.838.571l.363-.932Zm-.525-.565c0-.383.147-.684.482-.937l-.605-.797c-.572.434-.877 1.024-.877 1.734h1Zm.46-.922c.319-.216.684-.57 1.091-1.033.412-.468.886-1.071 1.423-1.804l-.808-.59c-.526.72-.98 1.296-1.366 1.734-.39.444-.689.722-.9.865l.56.828Zm2.51-2.831c1.207-1.6 2.034-2.89 2.45-3.854l-.918-.395c-.366.848-1.133 2.059-2.331 3.646l.798.603Zm2.425-3.803c0-.001-.015.025-.055.05a.234.234 0 0 1-.122.037v-1c-.319 0-.556.18-.691.416l.868.497Z"/></svg>
